( Made using CamBam - http://www.cambam.co.uk )
( pcb - CADCAM Bottom Copper 12/23/2018 8:04:19 PM )
( T0 : 0.0199 )
G20 G90 G64 G40
G0 Z0.125
( T0 : 0.0199 )
T0 M6
( Contour1 )
G17
M3 S1000
G0 X-1.05 Y1.0601
G0 Z0.0625
G1 F10.0 Z-0.005
G1 F1.0 Y1.06
G3 X-1.04 Y1.0501 I0.0099 J0.0
G1 X-0.96
G3 X-0.9501 Y1.06 I0.0 J0.0099
G1 Y1.14
G3 X-0.96 Y1.15 I-0.01 J0.0
G1 X-1.04
G3 X-1.05 Y1.14 I0.0 J-0.0099
G1 X-1.1
G3 X-1.1283 Y1.1282 I0.0 J-0.04
G1 X-1.161 Y1.0954
G3 X-1.1727 Y1.0672 I0.0283 J-0.0282
G1 Y0.2327
G3 X-1.1609 Y0.2045 I0.0399 J0.0
G1 X-1.0282 Y0.0718
G3 X-1.0 Y0.0601 I0.0282 J0.0282
G1 X-0.85
G1 Y0.06
G3 X-0.84 Y0.0501 I0.01 J0.0
G1 X-0.76
G3 X-0.7501 Y0.06 I0.0 J0.01
G1 Y0.14
G3 X-0.76 Y0.15 I-0.01 J0.0
G1 X-0.84
G3 X-0.85 Y0.14 I0.0 J-0.01
G1 X-0.9835
G1 X-1.0928 Y0.2492
G1 Y1.0507
G1 X-1.0834 Y1.0601
G1 X-1.05
G1 F10.0 X-1.0444 Y1.0489
G3 F1.0 X-1.05 Y1.04 I0.0044 J-0.0089
G1 Y0.96
G3 X-1.04 Y0.9501 I0.0099 J0.0
G1 X-0.96
G3 X-0.9501 Y0.96 I0.0 J0.01
G1 Y0.9601
G1 X-0.14
G1 Y0.14
G1 X-0.3501
G3 X-0.36 Y0.15 I-0.01 J0.0
G1 X-0.44
G3 X-0.45 Y0.14 I0.0 J-0.01
G1 X-0.4501
G3 X-0.46 Y0.15 I-0.01 J0.0
G1 X-0.54
G3 X-0.55 Y0.14 I0.0 J-0.01
G1 X-0.5501 Y0.1399
G1 Y0.14
G3 X-0.56 Y0.15 I-0.01 J0.0
G1 X-0.64
G3 X-0.65 Y0.14 I0.0 J-0.01
G1 X-0.6501 Y0.1399
G1 Y0.14
G3 X-0.66 Y0.15 I-0.01 J0.0
G1 X-0.74
G3 X-0.75 Y0.14 I0.0 J-0.01
G1 Y0.06
G3 X-0.74 Y0.0501 I0.01 J0.0
G1 X-0.66
G3 X-0.6501 Y0.06 I0.0 J0.01
G1 X-0.65 Y0.0601
G1 Y0.06
G3 X-0.64 Y0.0501 I0.01 J0.0
G1 X-0.56
G3 X-0.5501 Y0.06 I0.0 J0.01
G1 Y0.0601
G1 X-0.55
G1 Y0.06
G3 X-0.54 Y0.0501 I0.01 J0.0
G1 X-0.46
G3 X-0.4501 Y0.06 I0.0 J0.01
G1 X-0.45 Y0.0601
G1 Y0.06
G3 X-0.44 Y0.0501 I0.01 J0.0
G1 X-0.36
G3 X-0.3501 Y0.06 I0.0 J0.01
G1 Y0.0601
G1 X-0.1
G3 X-0.0601 Y0.1 I0.0 J0.0399
G1 Y1.0
G3 X-0.1 Y1.04 I-0.0399 J0.0
G1 X-0.9501
G3 X-0.96 Y1.05 I-0.0099 J0.0
G1 X-1.04
G3 X-1.0444 Y1.0489 I0.0 J-0.0099
G0 Z0.125
G0 X-1.0404 Y0.9499
G0 Z0.0625
G1 F10.0 Z-0.005
G3 F1.0 X-1.05 Y0.94 I0.0004 J-0.0099
G1 Y0.86
G3 X-1.04 Y0.8501 I0.0099 J0.0
G1 X-0.96
G3 X-0.9501 Y0.86 I0.0 J0.01
G1 Y0.94
G3 X-0.96 Y0.95 I-0.01 J0.0
G1 X-1.04
G3 X-1.0404 Y0.9499 I0.0 J-0.01
G0 Z0.125
G0 X-0.8375 Y0.8498
G0 Z0.0625
G1 F10.0 Z-0.005
G3 F1.0 X-0.8417 Y0.8321 I0.0358 J-0.0177
G1 Y0.6498
G3 X-0.85 Y0.64 I0.0016 J-0.0098
G1 Y0.56
G3 X-0.84 Y0.5501 I0.01 J0.0
G1 X-0.76
G3 X-0.7501 Y0.56 I0.0 J0.01
G1 Y0.64
G3 X-0.76 Y0.65 I-0.01 J0.0
G1 X-0.7618 Y0.6499
G1 Y0.8156
G1 X-0.7173 Y0.8601
G1 X-0.24
G1 Y0.24
G1 X-0.3501
G3 X-0.36 Y0.25 I-0.01 J0.0
G1 X-0.44
G3 X-0.45 Y0.24 I0.0 J-0.01
G1 Y0.16
G3 X-0.44 Y0.1501 I0.01 J0.0
G1 X-0.36
G3 X-0.3501 Y0.16 I0.0 J0.01
G1 Y0.1601
G1 X-0.2
G3 X-0.1601 Y0.2 I0.0 J0.04
G1 Y0.9
G3 X-0.2 Y0.94 I-0.0399 J0.0
G1 X-0.7338
G3 X-0.762 Y0.9282 I0.0 J-0.04
G1 X-0.8299 Y0.8603
G3 X-0.8375 Y0.8498 I0.0282 J-0.0282
G0 Z0.125
G0 X-0.7334 Y0.7939
G0 Z0.0625
G1 F10.0 Z-0.005
G3 F1.0 X-0.7382 Y0.775 I0.0352 J-0.0189
G1 Y0.65
G1 X-0.74
G3 X-0.75 Y0.64 I0.0 J-0.01
G1 Y0.56
G3 X-0.74 Y0.5501 I0.01 J0.0
G1 X-0.66
G3 X-0.6501 Y0.56 I0.0 J0.01
G1 Y0.64
G3 X-0.6583 Y0.6498 I-0.01 J0.0
G1 Y0.7351
G1 X-0.3405
G1 Y0.39
G1 X-0.4723
G3 X-0.5005 Y0.3782 I0.0 J-0.04
G1 X-0.5282 Y0.3505
G3 X-0.54 Y0.3223 I0.0282 J-0.0282
G1 Y0.2499
G1 Y0.25
G3 X-0.55 Y0.24 I0.0 J-0.01
G1 Y0.16
G3 X-0.54 Y0.1501 I0.01 J0.0
G1 X-0.46
G3 X-0.4501 Y0.16 I0.0 J0.01
G1 Y0.24
G3 X-0.46 Y0.25 I-0.01 J0.0
G1 X-0.4601
G1 Y0.3058
G1 X-0.4558 Y0.3101
G1 X-0.3005
G3 X-0.2606 Y0.35 I0.0 J0.04
G1 Y0.775
G3 X-0.3005 Y0.815 I-0.04 J0.0
G1 X-0.6982
G3 X-0.7334 Y0.7939 I0.0 J-0.04
G0 Z0.125
G0 X-0.6452 Y0.6485
G0 Z0.0625
G1 F10.0 Z-0.005
G3 F1.0 X-0.65 Y0.64 I0.0052 J-0.0085
G1 Y0.56
G3 X-0.64 Y0.5501 I0.01 J0.0
G1 X-0.56
G3 X-0.5501 Y0.56 I0.0 J0.01
G1 Y0.64
G3 X-0.56 Y0.65 I-0.01 J0.0
G1 X-0.64
G3 X-0.6452 Y0.6485 I0.0 J-0.01
G0 Z0.125
G0 X-0.5499 Y0.6408
G0 Z0.0625
G1 F10.0 Z-0.005
G3 F1.0 X-0.55 Y0.64 I0.0099 J-0.0008
G1 Y0.56
G3 X-0.54 Y0.5501 I0.01 J0.0
G1 X-0.46
G3 X-0.4501 Y0.56 I0.0 J0.01
G1 Y0.64
G3 X-0.46 Y0.65 I-0.01 J0.0
G1 X-0.54
G3 X-0.5499 Y0.6408 I0.0 J-0.01
G0 Z0.125
G0 X-0.4499 Y0.6401
G0 Z0.0625
G1 F10.0 Z-0.005
G1 F1.0 X-0.45 Y0.64
G1 Y0.56
G3 X-0.44 Y0.5501 I0.01 J0.0
G1 Y0.55
G1 Y0.49
G1 X-0.6
G3 X-0.64 Y0.45 I0.0 J-0.04
G1 Y0.25
G3 X-0.65 Y0.24 I0.0 J-0.01
G1 Y0.16
G3 X-0.64 Y0.1501 I0.01 J0.0
G1 X-0.56
G3 X-0.5501 Y0.16 I0.0 J0.01
G1 Y0.24
G3 X-0.56 Y0.25 I-0.01 J0.0
G1 X-0.5601
G1 Y0.4101
G1 X-0.4
G3 X-0.3601 Y0.45 I0.0 J0.04
G1 Y0.5501
G1 X-0.36
G3 X-0.3501 Y0.56 I0.0 J0.01
G1 Y0.64
G3 X-0.36 Y0.65 I-0.01 J0.0
G1 X-0.44
G3 X-0.4499 Y0.6401 I0.0 J-0.01
G0 Z0.125
G0 X-0.8501 Y0.64
G0 Z0.0625
G1 F10.0 Z-0.005
G3 F1.0 X-0.86 Y0.65 I-0.0099 J0.0
G1 X-0.94
G3 X-0.95 Y0.64 I0.0 J-0.01
G1 Y0.56
G3 X-0.94 Y0.5501 I0.01 J0.0
G1 Y0.2
G3 X-0.9 Y0.1601 I0.0399 J0.0
G1 X-0.85
G1 Y0.16
G3 X-0.84 Y0.1501 I0.01 J0.0
G1 X-0.76
G3 X-0.7501 Y0.16 I0.0 J0.01
G1 Y0.24
G3 X-0.76 Y0.25 I-0.01 J0.0
G1 X-0.84
G3 X-0.85 Y0.24 I0.0 J-0.01
G1 Y0.2399
G1 X-0.8601
G1 Y0.5501
G1 X-0.86
G3 X-0.8501 Y0.56 I0.0 J0.01
G1 Y0.64
G0 Z0.125
G0 X-0.7426 Y0.2496
G0 Z0.0625
G1 F10.0 Z-0.005
G3 F1.0 X-0.75 Y0.24 I0.0026 J-0.0096
G1 Y0.16
G3 X-0.74 Y0.1501 I0.01 J0.0
G1 X-0.66
G3 X-0.6501 Y0.16 I0.0 J0.01
G1 Y0.24
G3 X-0.66 Y0.25 I-0.01 J0.0
G1 X-0.74
G3 X-0.7426 Y0.2496 I0.0 J-0.01
G0 Z0.125
M5
M30
